X: 31
T:Rosza2
M:6/8
L:1/16
Q:110
C:Undine Hornby
S:Empty Pocket Band
R:Other
O:England
K:Em
cBG|\
E2EGBe g2geBE|c2ABcd BcBAGF|
E2EGBe g2geBe\
|1 cBABcd  B3 :|GAB|
c2ABcd B4B2|
c2efg2 B2efg2|fga2gf g2f2e2|\
c2efg2 B2efg2|fga2gf e3dcB|
cefgfe Befgfe|fga2gf g2f2e2|\
cefgfe Befgfe|fga2gf e3||
W:Copyright Undine Hornby
